!!!OTL: 746. Das Lied vom Scheiden.
!!!ODT: 1549
!!!ARE: Europa, Mitteleuropa, Deutschland
!!!SCT: E0746
!!!TXL: @@DE
!!!YEM: Copyright 1995, estate of Helmut Schaffrath.
**kern	**text
*ICvox	*
*M4/4	*
*met(c)	*
*k[]	*
*C:	*
=1	=1
!LO:TX:a:t=Mel. 1549	!
{2e	Ach
4g	Gott,
4g	wie
=2	=2
4a	weh
4b	thut
2cc	Schei-
=3	=3
2cc}	-den!
{2ee	hat
=4	=4
2dd	mir
4b	mein
[4cc	Herʒ-
=5	=5
8ccL]	.
8b	.
8a	.
8gJ	.
4a	.
4a	-ver-
=6	=6
2g	-wundt;
4r}	.
{4g	ſo
=7	=7
2cc	trab
4cc	ich
[4b	ü-
=8	=8
4b]	.
8aL	-ber
8gJ	.
2a	d'Hei-
=9	=9
1e}	-den
=10	=10
{2cc	und
(4b	traur
4.a)	.
=11	=11
.	.
8e	ʒu
4g	al-
2f	-ler
=12	=12
1e	Stund.
=13	=13
4r}	.
{4e	Der
4e	Stunden
4e	.
=14	=14
2g	der
4f	ſeind
[4e	al-
=15	=15
4e]	.
8dL	.
8cJ	.
4d	.
4d	-ſo
=16	=16
1c	viel,
=17	=17
4r}	.
{4c	mein
2g	Herʒ
=18	=18
4a	trägt
(4.b	heim-
8cc)	.
8ddL	-lich
8bJ	.
=19	=19
2cc	Lei-
2g}	-den,
=20	=20
{2cc	wie-
4b	-wol
4.a	ich
=21	=21
.	.
8e	oft
4g	fröhlich
2f	.
=22	=22
1e}	bin.
==;	==;
!!!AGN: Abschieds - Lied, Liebe
!!!ONB: ESAC (Essen Associative Code) Database: ERK2
!!!AMT: simple quadruple
!!!AIN: vox
!!!EED: Helmut Schaffrath
!!!EEV: 1.0
!!!GTL: Abschieds- und Wanderlieder
!!!URL-scan: https://rosdok.uni-rostock.de/mcrviewer/recordIdentifier/rosdok_ppn745177662/iview2/phys_0555.iview2?x=141.26379593861043&y=222.0676281391643&scale=0.7029437510502773&rotation=0&layout=singlePageLayout
!!!ENC: Anna Maria Matuszewska
!!!EEV: 2024/12/16
*-	*-
